prototype/images/instagram.svg

<svg viewBox="0 0 512 512" xmlns="http://www.w3.org/2000/svg"><path d="m75 512h362c41.355469 0 75-33.644531 75-75v-362c0-41.355469-33.644531-75-75-75h-362c-41.355469 0-75 33.644531-75 75v362c0 41.355469 33.644531 75 75 75zm-45-437c0-24.8125 20.1875-45 45-45h362c24.8125 0 45 20.1875 45 45v362c0 24.8125-20.1875 45-45 45h-362c-24.8125 0-45-20.1875-45-45zm0 0"/><path d="m256 391c74.4375 0 135-60.5625 135-135s-60.5625-135-135-135-135 60.5625-135 135 60.5625 135 135 135zm0-240c57.898438 0 105 47.101562 105 105s-47.101562 105-105 105-105-47.101562-105-105 47.101562-105 105-105zm0 0"/><path d="m406 151c24.8125 0 45-20.1875 45-45s-20.1875-45-45-45-45 20.1875-45 45 20.1875 45 45 45zm0-60c8.269531 0 15 6.730469 15 15s-6.730469 15-15 15-15-6.730469-15-15 6.730469-15 15-15zm0 0"/></svg>

<?xml version="1.0" encoding="utf-8"?>
<!-- Generator: Adobe Illustrator 23.0.0, SVG Export Plug-In . SVG Version: 6.00 Build 0)  -->
<svg version="1.1" id="Layer_1" xmlns="http://www.w3.org/2000/svg" xmlns:xlink="http://www.w3.org/1999/xlink" x="0px" y="0px"
	 viewBox="0 0 512 512" style="enable-background:new 0 0 512 512;" xml:space="preserve">
<style type="text/css">
	.st0{fill:#FFFFFF;}
</style>
<path class="st0" d="M75,512h362c41.4,0,75-33.6,75-75V75c0-41.4-33.6-75-75-75H75C33.6,0,0,33.6,0,75v362C0,478.4,33.6,512,75,512z
	 M30,75c0-24.8,20.2-45,45-45h362c24.8,0,45,20.2,45,45v362c0,24.8-20.2,45-45,45H75c-24.8,0-45-20.2-45-45V75z"/>
<path class="st0" d="M256,391c74.4,0,135-60.6,135-135s-60.6-135-135-135s-135,60.6-135,135S181.6,391,256,391z M256,151
	c57.9,0,105,47.1,105,105s-47.1,105-105,105s-105-47.1-105-105S198.1,151,256,151z"/>
<path class="st0" d="M406,151c24.8,0,45-20.2,45-45s-20.2-45-45-45s-45,20.2-45,45S381.2,151,406,151z M406,91c8.3,0,15,6.7,15,15
	s-6.7,15-15,15s-15-6.7-15-15S397.7,91,406,91z"/>
</svg>
